; G-Code generated by Simplify3D(R) Version 4.0.0
; Nov 28, 2017 at 3:00:59 PM
; Settings Summary
;   processName,Process1
;   applyToModels,CH340-GOLD 4xWIREHUB COVER
;   profileName,UPSM-ABS
;   profileVersion,2017-11-03 00:53:54
;   baseProfile,Default
;   printMaterial,ABS
;   printQuality,High
;   printExtruders,
;   extruderName,Extruder 1
;   extruderToolheadNumber,0
;   extruderDiameter,0.4
;   extruderAutoWidth,0
;   extruderWidth,0.5
;   extrusionMultiplier,1
;   extruderUseRetract,1
;   extruderRetractionDistance,0.7
;   extruderExtraRestartDistance,0
;   extruderRetractionZLift,0.5
;   extruderRetractionSpeed,1800
;   extruderUseCoasting,1
;   extruderCoastingDistance,0.2
;   extruderUseWipe,1
;   extruderWipeDistance,2
;   primaryExtruder,0
;   layerHeight,0.25
;   topSolidLayers,4
;   bottomSolidLayers,4
;   perimeterOutlines,3
;   printPerimetersInsideOut,1
;   startPointOption,2
;   startPointOriginX,0
;   startPointOriginY,0
;   sequentialIslands,0
;   spiralVaseMode,0
;   firstLayerHeightPercentage,90
;   firstLayerWidthPercentage,100
;   firstLayerUnderspeed,0.2
;   useRaft,0
;   raftExtruder,0
;   raftTopLayers,3
;   raftBaseLayers,2
;   raftOffset,3
;   raftSeparationDistance,0.14
;   raftTopInfill,100
;   aboveRaftSpeedMultiplier,0.3
;   useSkirt,1
;   skirtExtruder,0
;   skirtLayers,1
;   skirtOutlines,5
;   skirtOffset,0
;   usePrimePillar,0
;   primePillarExtruder,999
;   primePillarWidth,12
;   primePillarLocation,7
;   primePillarSpeedMultiplier,1
;   useOozeShield,0
;   oozeShieldExtruder,999
;   oozeShieldOffset,2
;   oozeShieldOutlines,1
;   oozeShieldSidewallShape,1
;   oozeShieldSidewallAngle,30
;   oozeShieldSpeedMultiplier,1
;   infillExtruder,0
;   internalInfillPattern,Rectilinear
;   externalInfillPattern,Rectilinear
;   infillPercentage,15
;   outlineOverlapPercentage,50
;   infillExtrusionWidthPercentage,100
;   minInfillLength,1
;   infillLayerInterval,1
;   internalInfillAngles,45,-45
;   overlapInternalInfillAngles,0
;   externalInfillAngles,45,-45
;   generateSupport,0
;   supportExtruder,0
;   supportInfillPercentage,50
;   supportExtraInflation,1
;   supportBaseLayers,1
;   denseSupportExtruder,0
;   denseSupportLayers,2
;   denseSupportInfillPercentage,80
;   supportLayerInterval,1
;   supportHorizontalPartOffset,0.3
;   supportUpperSeparationLayers,1
;   supportLowerSeparationLayers,1
;   supportType,0
;   supportGridSpacing,4
;   maxOverhangAngle,45
;   supportAngles,0
;   temperatureName,Extruder 1,Heated Bed
;   temperatureNumber,0,0
;   temperatureSetpointCount,1,1
;   temperatureSetpointLayers,1,1
;   temperatureSetpointTemperatures,240,100
;   temperatureStabilizeAtStartup,1,1
;   temperatureHeatedBed,0,1
;   temperatureRelayBetweenLayers,0,0
;   temperatureRelayBetweenLoops,0,0
;   fanLayers,1
;   fanSpeeds,0
;   blipFanToFullPower,0
;   adjustSpeedForCooling,0
;   minSpeedLayerTime,15
;   minCoolingSpeedSlowdown,20
;   increaseFanForCooling,0
;   minFanLayerTime,20
;   maxCoolingFanSpeed,40
;   increaseFanForBridging,0
;   bridgingFanSpeed,40
;   use5D,1
;   relativeEdistances,0
;   allowEaxisZeroing,1
;   independentExtruderAxes,0
;   includeM10123,0
;   stickySupport,1
;   applyToolheadOffsets,0
;   gcodeXoffset,0
;   gcodeYoffset,0
;   gcodeZoffset,-0.63
;   overrideMachineDefinition,1
;   machineTypeOverride,0
;   strokeXoverride,142
;   strokeYoverride,160
;   strokeZoverride,135
;   originOffsetXoverride,0
;   originOffsetYoverride,0
;   originOffsetZoverride,0
;   homeXdirOverride,-1
;   homeYdirOverride,-1
;   homeZdirOverride,-1
;   flipXoverride,1
;   flipYoverride,-1
;   flipZoverride,1
;   toolheadOffsets,0,0|0,0|0,0|0,0|0,0|0,0
;   overrideFirmwareConfiguration,0
;   firmwareTypeOverride,RepRap (Marlin/Repetier/Sprinter)
;   GPXconfigOverride,r2
;   baudRateOverride,250000
;   overridePrinterModels,0
;   printerModelsOverride
;   startingGcode,M17,G28,G28 Z,M200 D0,,
;   layerChangeGcode,
;   retractionGcode,
;   toolChangeGcode,
;   endingGcode,M104 S0 ; turn off extruder,M140 S0 ; turn off bed,G0 X0 Y140 
;   exportFileFormat,gcode
;   celebration,0
;   celebrationSong,Random Song
;   postProcessing,E:\bin\curl-7.50.3-win64-mingw\bin\curl.exe -H "X-Api-Key: A0748F07268D4763BED4B3A78AA7E1C3" -F "select=false" -F "print=false" -F "file=@[output_filepath]" "http://192.168.90.61/api/files/local"
;   defaultSpeed,4200
;   outlineUnderspeed,0.8
;   solidInfillUnderspeed,1
;   supportUnderspeed,1
;   rapidXYspeed,4200
;   rapidZspeed,600
;   minBridgingArea,5
;   bridgingExtraInflation,3
;   bridgingExtrusionMultiplier,1
;   bridgingSpeedMultiplier,0.2
;   useFixedBridgingAngle,0
;   fixedBridgingAngle,0
;   applyBridgingToPerimeters,1
;   filamentDiameters,1.75|1.75|1.75|1.75|1.75|1.75
;   filamentPricesPerKg,46|46|46|46|46|46
;   filamentDensities,1.25|1.25|1.25|1.25|1.25|1.25
;   useMinPrintHeight,0
;   minPrintHeight,0
;   useMaxPrintHeight,0
;   maxPrintHeight,0
;   useDiaphragm,0
;   diaphragmLayerInterval,20
;   robustSlicing,1
;   mergeAllIntoSolid,0
;   onlyRetractWhenCrossingOutline,1
;   retractBetweenLayers,1
;   useRetractionMinTravel,0
;   retractionMinTravel,3
;   retractWhileWiping,0
;   onlyWipeOutlines,1
;   avoidCrossingOutline,1
;   maxMovementDetourFactor,999
;   toolChangeRetractionDistance,12
;   toolChangeExtraRestartDistance,-0.5
;   toolChangeRetractionSpeed,600
;   externalThinWallType,1
;   internalThinWallType,1
;   thinWallAllowedOverlapPercentage,80
;   singleExtrusionMinLength,0
;   singleExtrusionMinPrintingWidthPercentage,60
;   singleExtrusionMaxPrintingWidthPercentage,150
;   singleExtrusionEndpointExtension,0.2
;   horizontalSizeCompensation,0
G90
M82
M106 S0
M140 S100
M190 S100
M104 S240 T0
M109 S240 T0
M17
G28
G28 Z
M200 D0
G92 E0
G1 E-0.7000 F1800
G1 Z0.095 F600
; process Process1
; layer 1, Z = 0.225
T0
; tool H0.250 W0.500
; skirt
G1 X64.250 Y52.368 F4200
G1 Z-0.405 F600
G1 E0.0000 F540
G92 E0
G1 X65.568 Y51.050 E0.0969 F840
G1 X76.432 Y51.050 E0.6615
G1 X77.750 Y52.368 E0.7583
G1 X77.750 Y107.632 E3.6303
G1 X76.432 Y108.950 E3.7272
G1 X65.568 Y108.950 E4.2918
G1 X64.250 Y107.632 E4.3887
G1 X64.250 Y104.268 E4.5635
G1 X65.568 Y102.950 E4.6603
G1 X72.250 Y102.950 E5.0076
G1 X72.250 Y57.050 E7.3930
G1 X65.568 Y57.050 E7.7402
G1 X64.250 Y55.732 E7.8371
G1 X64.250 Y52.568 E8.0015
G1 X64.250 Y52.368 F840
G1 X64.750 Y52.575 F4200
G92 E0
G1 X65.775 Y51.550 E0.0753 F840
G1 X76.225 Y51.550 E0.6184
G1 X77.250 Y52.575 E0.6937
G1 X77.250 Y107.425 E3.5442
G1 X76.225 Y108.450 E3.6196
G1 X65.775 Y108.450 E4.1626
G1 X64.750 Y107.425 E4.2380
G1 X64.750 Y104.475 E4.3913
G1 X65.775 Y103.450 E4.4666
G1 X72.750 Y103.450 E4.8291
G1 X72.750 Y56.550 E7.2664
G1 X65.775 Y56.550 E7.6289
G1 X64.750 Y55.525 E7.7043
G1 X64.750 Y52.775 E7.8472
G1 X64.750 Y52.575 F840
G1 X65.250 Y52.782 F4200
G92 E0
G1 X65.982 Y52.050 E0.0538 F840
G1 X76.018 Y52.050 E0.5754
G1 X76.750 Y52.782 E0.6292
G1 X76.750 Y107.218 E3.4581
G1 X76.018 Y107.950 E3.5119
G1 X65.982 Y107.950 E4.0335
G1 X65.250 Y107.218 E4.0873
G1 X65.250 Y104.682 E4.2191
G1 X65.982 Y103.950 E4.2729
G1 X73.250 Y103.950 E4.6506
G1 X73.250 Y56.050 E7.1399
G1 X65.982 Y56.050 E7.5176
G1 X65.250 Y55.318 E7.5714
G1 X65.250 Y52.982 E7.6928
G1 X65.250 Y52.782 F840
G1 X65.750 Y52.989 F4200
G92 E0
G1 X66.189 Y52.550 E0.0323 F840
G1 X75.811 Y52.550 E0.5323
G1 X76.250 Y52.989 E0.5646
G1 X76.250 Y107.011 E3.3720
G1 X75.811 Y107.450 E3.4043
G1 X66.189 Y107.450 E3.9043
G1 X65.750 Y107.011 E3.9366
G1 X65.750 Y104.889 E4.0469
G1 X66.189 Y104.450 E4.0791
G1 X73.750 Y104.450 E4.4721
G1 X73.750 Y55.550 E7.0133
G1 X66.189 Y55.550 E7.4063
G1 X65.750 Y55.111 E7.4386
G1 X65.750 Y53.189 E7.5384
G1 X65.750 Y52.989 F840
G1 X66.250 Y53.196 F4200
G92 E0
G1 X66.396 Y53.050 E0.0108 F840
G1 X75.604 Y53.050 E0.4892
G1 X75.750 Y53.196 E0.5000
G1 X75.750 Y106.804 E3.2859
G1 X75.604 Y106.950 E3.2967
G1 X66.396 Y106.950 E3.7752
G1 X66.250 Y106.804 E3.7859
G1 X66.250 Y105.096 E3.8746
G1 X66.396 Y104.950 E3.8854
G1 X74.250 Y104.950 E4.2935
G1 X74.250 Y55.050 E6.8868
G1 X66.396 Y55.050 E7.2949
G1 X66.250 Y54.904 E7.3057
G1 X66.250 Y53.396 E7.3840
G1 X66.250 Y53.196 F840
G92 E0
G1 E-0.7000 F1800
G1 Z0.095 F600
; outer perimeter
G1 X66.745 Y53.545 F4200
G1 X66.745 Y53.546 F4200
G1 X66.750 Y53.550 F4200
G1 Z-0.405 F600
G1 E0.0000 F1800
G92 E0
G1 X75.250 Y53.550 E0.4417 F672
G1 X75.250 Y106.450 E3.1909
G1 X66.750 Y106.450 E3.6326
G1 X66.750 Y105.450 E3.6846
G1 X74.750 Y105.450 E4.1004
G1 X74.750 Y54.550 E6.7456
G1 X66.750 Y54.550 E7.1613
G1 X66.750 Y53.750 E7.2029
G1 X66.750 Y53.550 F672
G1 X68.750 Y53.550 F4200
; internal single extrusion
G1 X67.105 Y54.050 F4200
G92 E0
; tool H0.250 W0.490
G1 X74.695 Y54.050 E0.3866 F672
G1 X74.895 Y54.050 F672
G1 X74.895 Y105.950 F4200
; tool H0.250 W0.500
G92 E0
; tool H0.250 W0.490
G1 X67.305 Y105.950 E0.3866 F672
G1 X67.105 Y105.950 F672
G92 E0
G1 E-0.7000 F1800
G1 Z0.345 F600
; layer 2, Z = 0.475
; tool H0.250 W0.500
; outer perimeter
G1 X66.750 Y105.450 F4200
G1 Z-0.155 F600
G1 E0.0000 F1800
G92 E0
G1 X74.750 Y105.450 E0.4158 F3360
G1 X74.750 Y54.550 E3.0610
G1 X66.750 Y54.550 E3.4767
G1 X66.750 Y53.550 E3.5287
G1 X75.250 Y53.550 E3.9704
G1 X75.250 Y106.450 E6.7196
G1 X66.750 Y106.450 E7.1613
G1 X66.750 Y105.650 E7.2029
G1 X66.750 Y105.450 F3360
G1 X68.750 Y105.450 F4200
; internal single extrusion
G1 X67.105 Y105.950 F4200
G92 E0
; tool H0.250 W0.490
G1 X74.695 Y105.950 E0.3866 F3360
G1 X74.895 Y105.950 F3360
G1 X74.895 Y54.050 F4200
; tool H0.250 W0.500
G92 E0
; tool H0.250 W0.490
G1 X67.305 Y54.050 E0.3866 F3360
G1 X67.105 Y54.050 F3360
G92 E0
G1 E-0.7000 F1800
G1 Z0.595 F600
; layer 3, Z = 0.725
; tool H0.250 W0.500
; outer perimeter
G1 X66.750 Y53.550 F4200
G1 Z0.095 F600
G1 E0.0000 F1800
G92 E0
G1 X75.250 Y53.550 E0.4417 F3360
G1 X75.250 Y106.450 E3.1909
G1 X66.750 Y106.450 E3.6326
G1 X66.750 Y105.450 E3.6846
G1 X74.750 Y105.450 E4.1004
G1 X74.750 Y54.550 E6.7456
G1 X66.750 Y54.550 E7.1613
G1 X66.750 Y53.750 E7.2029
G1 X66.750 Y53.550 F3360
G1 X68.750 Y53.550 F4200
; internal single extrusion
G1 X67.105 Y54.050 F4200
G92 E0
; tool H0.250 W0.490
G1 X74.695 Y54.050 E0.3866 F3360
G1 X74.895 Y54.050 F3360
G1 X74.895 Y105.950 F4200
; tool H0.250 W0.500
G92 E0
; tool H0.250 W0.490
G1 X67.305 Y105.950 E0.3866 F3360
G1 X67.105 Y105.950 F3360
G92 E0
G1 E-0.7000 F1800
G1 Z0.845 F600
; layer 4, Z = 0.975
; tool H0.250 W0.500
; outer perimeter
G1 X66.750 Y105.450 F4200
G1 Z0.345 F600
G1 E0.0000 F1800
G92 E0
G1 X74.750 Y105.450 E0.4158 F3360
G1 X74.750 Y54.550 E3.0610
G1 X66.750 Y54.550 E3.4767
G1 X66.750 Y53.550 E3.5287
G1 X75.250 Y53.550 E3.9704
G1 X75.250 Y106.450 E6.7196
G1 X66.750 Y106.450 E7.1613
G1 X66.750 Y105.650 E7.2029
G1 X66.750 Y105.450 F3360
G1 X68.750 Y105.450 F4200
; internal single extrusion
G1 X67.105 Y105.950 F4200
G92 E0
; tool H0.250 W0.490
G1 X74.695 Y105.950 E0.3866 F3360
G1 X74.895 Y105.950 F3360
G1 X74.895 Y54.050 F4200
; tool H0.250 W0.500
G92 E0
; tool H0.250 W0.490
G1 X67.305 Y54.050 E0.3866 F3360
G1 X67.105 Y54.050 F3360
G92 E0
G1 E-0.7000 F1800
G1 Z1.095 F600
; layer 5, Z = 1.225
; tool H0.250 W0.500
; outer perimeter
G1 X66.750 Y53.550 F4200
G1 Z0.595 F600
G1 E0.0000 F1800
G92 E0
G1 X75.250 Y53.550 E0.4417 F3360
G1 X75.250 Y106.450 E3.1909
G1 X66.750 Y106.450 E3.6326
G1 X66.750 Y105.450 E3.6846
G1 X74.750 Y105.450 E4.1004
G1 X74.750 Y54.550 E6.7456
G1 X66.750 Y54.550 E7.1613
G1 X66.750 Y53.750 E7.2029
G1 X66.750 Y53.550 F3360
G1 X68.750 Y53.550 F4200
; internal single extrusion
G1 X67.105 Y54.050 F4200
G92 E0
; tool H0.250 W0.490
G1 X74.695 Y54.050 E0.3866 F3360
G1 X74.895 Y54.050 F3360
G1 X74.895 Y105.950 F4200
; tool H0.250 W0.500
G92 E0
; tool H0.250 W0.490
G1 X67.305 Y105.950 E0.3866 F3360
G1 X67.105 Y105.950 F3360
G92 E0
G1 E-0.7000 F1800
G1 Z1.345 F600
; layer 6, Z = 1.475
; tool H0.250 W0.500
; outer perimeter
G1 X66.750 Y105.450 F4200
G1 Z0.845 F600
G1 E0.0000 F1800
G92 E0
G1 X74.750 Y105.450 E0.4158 F3360
G1 X74.750 Y54.550 E3.0610
G1 X66.750 Y54.550 E3.4767
G1 X66.750 Y53.550 E3.5287
G1 X75.250 Y53.550 E3.9704
G1 X75.250 Y106.450 E6.7196
G1 X66.750 Y106.450 E7.1613
G1 X66.750 Y105.650 E7.2029
G1 X66.750 Y105.450 F3360
G1 X68.750 Y105.450 F4200
; internal single extrusion
G1 X67.105 Y105.950 F4200
G92 E0
; tool H0.250 W0.490
G1 X74.695 Y105.950 E0.3866 F3360
G1 X74.895 Y105.950 F3360
G1 X74.895 Y54.050 F4200
; tool H0.250 W0.500
G92 E0
; tool H0.250 W0.490
G1 X67.305 Y54.050 E0.3866 F3360
G1 X67.105 Y54.050 F3360
G92 E0
G1 E-0.7000 F1800
G1 Z1.595 F600
; layer 7, Z = 1.725
; tool H0.250 W0.500
; outer perimeter
G1 X66.750 Y53.550 F4200
G1 Z1.095 F600
G1 E0.0000 F1800
G92 E0
G1 X75.250 Y53.550 E0.4417 F3360
G1 X75.250 Y106.450 E3.1909
G1 X66.750 Y106.450 E3.6326
G1 X66.750 Y105.450 E3.6846
G1 X74.750 Y105.450 E4.1004
G1 X74.750 Y54.550 E6.7456
G1 X66.750 Y54.550 E7.1613
G1 X66.750 Y53.750 E7.2029
G1 X66.750 Y53.550 F3360
G1 X68.750 Y53.550 F4200
; internal single extrusion
G1 X67.105 Y54.050 F4200
G92 E0
; tool H0.250 W0.490
G1 X74.695 Y54.050 E0.3866 F3360
G1 X74.895 Y54.050 F3360
G1 X74.895 Y105.950 F4200
; tool H0.250 W0.500
G92 E0
; tool H0.250 W0.490
G1 X67.305 Y105.950 E0.3866 F3360
G1 X67.105 Y105.950 F3360
G92 E0
G1 E-0.7000 F1800
G1 Z1.845 F600
; layer 8, Z = 1.975
; tool H0.250 W0.500
; outer perimeter
G1 X66.750 Y105.450 F4200
G1 Z1.345 F600
G1 E0.0000 F1800
G92 E0
G1 X74.750 Y105.450 E0.4158 F3360
G1 X74.750 Y54.550 E3.0610
G1 X66.750 Y54.550 E3.4767
G1 X66.750 Y53.550 E3.5287
G1 X75.250 Y53.550 E3.9704
G1 X75.250 Y106.450 E6.7196
G1 X66.750 Y106.450 E7.1613
G1 X66.750 Y105.650 E7.2029
G1 X66.750 Y105.450 F3360
G1 X68.750 Y105.450 F4200
; internal single extrusion
G1 X67.105 Y105.950 F4200
G92 E0
; tool H0.250 W0.490
G1 X74.695 Y105.950 E0.3866 F3360
G1 X74.895 Y105.950 F3360
G1 X74.895 Y54.050 F4200
; tool H0.250 W0.500
G92 E0
; tool H0.250 W0.490
G1 X67.305 Y54.050 E0.3866 F3360
G1 X67.105 Y54.050 F3360
G92 E0
G1 E-0.7000 F1800
G1 Z2.095 F600
; layer 9, Z = 2.225
; tool H0.250 W0.500
; outer perimeter
G1 X66.750 Y53.550 F4200
G1 Z1.595 F600
G1 E0.0000 F1800
G92 E0
G1 X75.250 Y53.550 E0.4417 F3360
G1 X75.250 Y106.450 E3.1909
G1 X66.750 Y106.450 E3.6326
G1 X66.750 Y105.450 E3.6846
G1 X74.750 Y105.450 E4.1004
G1 X74.750 Y54.550 E6.7456
G1 X66.750 Y54.550 E7.1613
G1 X66.750 Y53.750 E7.2029
G1 X66.750 Y53.550 F3360
G1 X68.750 Y53.550 F4200
; internal single extrusion
G1 X67.105 Y54.050 F4200
G92 E0
; tool H0.250 W0.490
G1 X74.695 Y54.050 E0.3866 F3360
G1 X74.895 Y54.050 F3360
G1 X74.895 Y105.950 F4200
; tool H0.250 W0.500
G92 E0
; tool H0.250 W0.490
G1 X67.305 Y105.950 E0.3866 F3360
G1 X67.105 Y105.950 F3360
G92 E0
G1 E-0.7000 F1800
G1 Z2.345 F600
; layer 10, Z = 2.475
; tool H0.250 W0.500
; outer perimeter
G1 X66.750 Y105.450 F4200
G1 Z1.845 F600
G1 E0.0000 F1800
G92 E0
G1 X74.750 Y105.450 E0.4158 F3360
G1 X74.750 Y54.550 E3.0610
G1 X66.750 Y54.550 E3.4767
G1 X66.750 Y53.550 E3.5287
G1 X75.250 Y53.550 E3.9704
G1 X75.250 Y106.450 E6.7196
G1 X66.750 Y106.450 E7.1613
G1 X66.750 Y105.650 E7.2029
G1 X66.750 Y105.450 F3360
G1 X68.750 Y105.450 F4200
; internal single extrusion
G1 X67.105 Y105.950 F4200
G92 E0
; tool H0.250 W0.490
G1 X74.695 Y105.950 E0.3866 F3360
G1 X74.895 Y105.950 F3360
G1 X74.895 Y54.050 F4200
; tool H0.250 W0.500
G92 E0
; tool H0.250 W0.490
G1 X67.305 Y54.050 E0.3866 F3360
G1 X67.105 Y54.050 F3360
G92 E0
G1 E-0.7000 F1800
G1 Z2.595 F600
; layer 11, Z = 2.725
; tool H0.250 W0.500
; outer perimeter
