; G-Code generated by Simplify3D(R) Version 4.0.0
; Nov 21, 2017 at 11:14:40 AM
; Settings Summary
;   processName,Process1
;   applyToModels,99PerCent_S7_10_1_007
;   profileName,UPSM-ABS (modified)
;   profileVersion,2017-11-03 00:53:54
;   baseProfile,Default
;   printMaterial,ABS
;   printQuality,High
;   printExtruders,
;   extruderName,Extruder 1
;   extruderToolheadNumber,0
;   extruderDiameter,0.4
;   extruderAutoWidth,0
;   extruderWidth,0.5
;   extrusionMultiplier,1
;   extruderUseRetract,1
;   extruderRetractionDistance,0.7
;   extruderExtraRestartDistance,0
;   extruderRetractionZLift,0.5
;   extruderRetractionSpeed,1800
;   extruderUseCoasting,1
;   extruderCoastingDistance,0.2
;   extruderUseWipe,1
;   extruderWipeDistance,2
;   primaryExtruder,0
;   layerHeight,0.2
;   topSolidLayers,4
;   bottomSolidLayers,4
;   perimeterOutlines,4
;   printPerimetersInsideOut,1
;   startPointOption,2
;   startPointOriginX,0
;   startPointOriginY,0
;   sequentialIslands,0
;   spiralVaseMode,0
;   firstLayerHeightPercentage,90
;   firstLayerWidthPercentage,100
;   firstLayerUnderspeed,0.2
;   useRaft,0
;   raftExtruder,0
;   raftTopLayers,3
;   raftBaseLayers,2
;   raftOffset,3
;   raftSeparationDistance,0.14
;   raftTopInfill,100
;   aboveRaftSpeedMultiplier,0.3
;   useSkirt,1
;   skirtExtruder,0
;   skirtLayers,1
;   skirtOutlines,1
;   skirtOffset,3
;   usePrimePillar,0
;   primePillarExtruder,999
;   primePillarWidth,12
;   primePillarLocation,7
;   primePillarSpeedMultiplier,1
;   useOozeShield,0
;   oozeShieldExtruder,999
;   oozeShieldOffset,2
;   oozeShieldOutlines,1
;   oozeShieldSidewallShape,1
;   oozeShieldSidewallAngle,30
;   oozeShieldSpeedMultiplier,1
;   infillExtruder,0
;   internalInfillPattern,Rectilinear
;   externalInfillPattern,Rectilinear
;   infillPercentage,15
;   outlineOverlapPercentage,50
;   infillExtrusionWidthPercentage,100
;   minInfillLength,1
;   infillLayerInterval,1
;   internalInfillAngles,45,-45
;   overlapInternalInfillAngles,0
;   externalInfillAngles,45,-45
;   generateSupport,1
;   supportExtruder,0
;   supportInfillPercentage,50
;   supportExtraInflation,1
;   supportBaseLayers,1
;   denseSupportExtruder,0
;   denseSupportLayers,2
;   denseSupportInfillPercentage,80
;   supportLayerInterval,1
;   supportHorizontalPartOffset,0.3
;   supportUpperSeparationLayers,1
;   supportLowerSeparationLayers,1
;   supportType,0
;   supportGridSpacing,4
;   maxOverhangAngle,45
;   supportAngles,0
;   temperatureName,Extruder 1,Heated Bed
;   temperatureNumber,0,0
;   temperatureSetpointCount,1,1
;   temperatureSetpointLayers,1,1
;   temperatureSetpointTemperatures,240,100
;   temperatureStabilizeAtStartup,1,1
;   temperatureHeatedBed,0,1
;   temperatureRelayBetweenLayers,0,0
;   temperatureRelayBetweenLoops,0,0
;   fanLayers,1
;   fanSpeeds,0
;   blipFanToFullPower,0
;   adjustSpeedForCooling,1
;   minSpeedLayerTime,15
;   minCoolingSpeedSlowdown,20
;   increaseFanForCooling,0
;   minFanLayerTime,20
;   maxCoolingFanSpeed,40
;   increaseFanForBridging,0
;   bridgingFanSpeed,40
;   use5D,1
;   relativeEdistances,0
;   allowEaxisZeroing,1
;   independentExtruderAxes,0
;   includeM10123,0
;   stickySupport,1
;   applyToolheadOffsets,0
;   gcodeXoffset,0
;   gcodeYoffset,0
;   gcodeZoffset,-0.63
;   overrideMachineDefinition,1
;   machineTypeOverride,0
;   strokeXoverride,142
;   strokeYoverride,160
;   strokeZoverride,135
;   originOffsetXoverride,0
;   originOffsetYoverride,0
;   originOffsetZoverride,0
;   homeXdirOverride,-1
;   homeYdirOverride,-1
;   homeZdirOverride,-1
;   flipXoverride,1
;   flipYoverride,-1
;   flipZoverride,1
;   toolheadOffsets,0,0|0,0|0,0|0,0|0,0|0,0
;   overrideFirmwareConfiguration,0
;   firmwareTypeOverride,RepRap (Marlin/Repetier/Sprinter)
;   GPXconfigOverride,r2
;   baudRateOverride,250000
;   overridePrinterModels,0
;   printerModelsOverride
;   startingGcode,M17,G28,G28 Z,M200 D0,,
;   layerChangeGcode,
;   retractionGcode,
;   toolChangeGcode,
;   endingGcode,M104 S0 ; turn off extruder,M140 S0 ; turn off bed,G0 X0 Y140 
;   exportFileFormat,gcode
;   celebration,0
;   celebrationSong,Random Song
;   postProcessing,E:\bin\curl-7.50.3-win64-mingw\bin\curl.exe -H "X-Api-Key: A0748F07268D4763BED4B3A78AA7E1C3" -F "select=false" -F "print=false" -F "file=@[output_filepath]" "http://192.168.90.61/api/files/local"
;   defaultSpeed,4200
;   outlineUnderspeed,0.8
;   solidInfillUnderspeed,1
;   supportUnderspeed,1
;   rapidXYspeed,4200
;   rapidZspeed,600
;   minBridgingArea,5
;   bridgingExtraInflation,3
;   bridgingExtrusionMultiplier,1
;   bridgingSpeedMultiplier,0.2
;   useFixedBridgingAngle,0
;   fixedBridgingAngle,0
;   applyBridgingToPerimeters,1
;   filamentDiameters,1.75|1.75|1.75|1.75|1.75|1.75
;   filamentPricesPerKg,46|46|46|46|46|46
;   filamentDensities,1.25|1.25|1.25|1.25|1.25|1.25
;   useMinPrintHeight,0
;   minPrintHeight,0
;   useMaxPrintHeight,0
;   maxPrintHeight,0
;   useDiaphragm,0
;   diaphragmLayerInterval,20
;   robustSlicing,1
;   mergeAllIntoSolid,0
;   onlyRetractWhenCrossingOutline,1
;   retractBetweenLayers,1
;   useRetractionMinTravel,0
;   retractionMinTravel,3
;   retractWhileWiping,0
;   onlyWipeOutlines,1
;   avoidCrossingOutline,1
;   maxMovementDetourFactor,999
;   toolChangeRetractionDistance,12
;   toolChangeExtraRestartDistance,-0.5
;   toolChangeRetractionSpeed,600
;   externalThinWallType,1
;   internalThinWallType,1
;   thinWallAllowedOverlapPercentage,80
;   singleExtrusionMinLength,0
;   singleExtrusionMinPrintingWidthPercentage,60
;   singleExtrusionMaxPrintingWidthPercentage,150
;   singleExtrusionEndpointExtension,0.2
;   horizontalSizeCompensation,0
G90
M82
M106 S0
M140 S100
M190 S100
M104 S240 T0
M109 S240 T0
M17
G28
G28 Z
M200 D0
G92 E0
G1 E-0.7000 F1800
G1 Z0.050 F600
; process Process1
; layer 1, Z = 0.180
T0
; tool H0.200 W0.500
; skirt
G1 X45.211 Y53.243 F4200
G1 Z-0.450 F600
G1 E0.0000 F540
G92 E0
G1 X45.252 Y53.215 E0.0020 F840
G1 X46.400 Y52.740 E0.0537
G1 X46.449 Y52.730 E0.0558
G1 X95.551 Y52.730 E2.0972
G1 X95.600 Y52.740 E2.0993
G1 X96.748 Y53.215 E2.1509
G1 X96.789 Y53.243 E2.1530
G1 X97.757 Y54.211 E2.2099
G1 X97.785 Y54.252 E2.2120
G1 X98.260 Y55.400 E2.2636
G1 X98.270 Y55.449 E2.2657
G1 X98.270 Y104.551 E4.3071
G1 X98.260 Y104.600 E4.3092
G1 X97.785 Y105.748 E4.3609
G1 X97.757 Y105.789 E4.3629
G1 X96.789 Y106.757 E4.4199
G1 X96.748 Y106.785 E4.4219
G1 X95.600 Y107.260 E4.4736
G1 X95.551 Y107.270 E4.4756
G1 X46.449 Y107.270 E6.5171
G1 X46.400 Y107.260 E6.5191
G1 X45.252 Y106.785 E6.5708
G1 X45.211 Y106.757 E6.5728
G1 X44.243 Y105.789 E6.6298
G1 X44.215 Y105.748 E6.6319
G1 X43.740 Y104.600 E6.6835
G1 X43.730 Y104.551 E6.6856
G1 X43.730 Y55.449 E8.7270
G1 X43.740 Y55.400 E8.7291
G1 X44.215 Y54.252 E8.7807
G1 X44.243 Y54.211 E8.7828
G1 X45.070 Y53.384 E8.8314
G1 X45.211 Y53.243 F840
G92 E0
G1 E-0.7000 F1800
G1 Z0.050 F600
; inner perimeter
G1 X47.225 Y56.225 F4200
G1 X47.550 Y56.225 F4200
G1 X48.730 Y57.730 F4200
G1 Z-0.450 F600
G1 E0.0000 F1800
G92 E0
G1 X93.270 Y57.730 E1.8518 F756
G1 X93.270 Y102.270 E3.7035
G1 X48.730 Y102.270 E5.5553
G1 X48.730 Y57.930 E7.3987
G1 X48.730 Y57.730 F756
G1 X48.230 Y57.230 F4200
G92 E0
G1 X93.770 Y57.230 E1.8933 F756
G1 X93.770 Y102.770 E3.7867
G1 X48.230 Y102.770 E5.6800
G1 X48.230 Y57.430 E7.5650
G1 X48.230 Y57.230 F756
G1 X47.730 Y56.730 F4200
G92 E0
G1 X94.270 Y56.730 E1.9349 F756
G1 X94.270 Y103.270 E3.8698
G1 X47.730 Y103.270 E5.8047
G1 X47.730 Y56.930 E7.7313
G1 X47.730 Y56.730 F756
; outer perimeter
G1 X47.230 Y56.230 F4200
G92 E0
G1 X94.770 Y56.230 E1.9765 F672
G1 X94.770 Y103.770 E3.9530
G1 X47.230 Y103.770 E5.9295
G1 X47.230 Y56.430 E7.8976
G1 X47.230 Y56.230 F672
G1 X49.230 Y56.230 F4200
; inner perimeter
G1 X56.345 Y62.270 F4200
G92 E0
G1 X53.270 Y65.345 E0.1808 F756
G1 X53.270 Y94.655 E1.3994
G1 X56.345 Y97.730 E1.5802
G1 X85.655 Y97.730 E2.7987
G1 X88.730 Y94.655 E2.9795
G1 X88.730 Y65.345 E4.1981
G1 X85.655 Y62.270 E4.3789
G1 X56.545 Y62.270 E5.5891
G1 X56.345 Y62.270 F756
G1 X56.552 Y62.770 F4200
G92 E0
G1 X53.770 Y65.552 E0.1636 F756
G1 X53.770 Y94.448 E1.3649
G1 X56.552 Y97.230 E1.5285
G1 X85.448 Y97.230 E2.7298
G1 X88.230 Y94.448 E2.8934
G1 X88.230 Y65.552 E4.0948
G1 X85.448 Y62.770 E4.2583
G1 X56.752 Y62.770 E5.4514
G1 X56.552 Y62.770 F756
G1 X56.759 Y63.270 F4200
G92 E0
G1 X54.270 Y65.759 E0.1464 F756
G1 X54.270 Y94.241 E1.3305
G1 X56.759 Y96.730 E1.4768
G1 X85.241 Y96.730 E2.6610
G1 X87.730 Y94.241 E2.8073
G1 X87.730 Y65.759 E3.9914
G1 X85.241 Y63.270 E4.1378
G1 X56.959 Y63.270 E5.3136
G1 X56.759 Y63.270 F756
; outer perimeter
G1 X56.966 Y63.770 F4200
G92 E0
G1 X54.770 Y65.966 E0.1291 F672
G1 X54.770 Y94.034 E1.2960
G1 X56.966 Y96.230 E1.4252
G1 X85.034 Y96.230 E2.5921
G1 X87.230 Y94.034 E2.7212
G1 X87.230 Y65.966 E3.8881
G1 X85.034 Y63.770 E4.0173
G1 X57.166 Y63.770 E5.1758
G1 X56.966 Y63.770 F672
G1 X55.552 Y65.184 F4200
; solid layer
G1 X55.553 Y65.191 F4200
G1 X54.775 Y65.969 F4200
G1 X54.775 Y94.031 F4200
G1 X56.969 Y96.225 F4200
G1 X57.074 Y96.225 F4200
G1 X57.160 Y97.980 F4200
G92 E0
G1 X61.200 Y102.020 E0.2375 F840
G1 X61.907 Y102.020 E0.2669
G1 X57.867 Y97.980 E0.5045
G1 X58.574 Y97.980 E0.5339
G1 X62.614 Y102.020 E0.7714
G1 X63.322 Y102.020 E0.8008
G1 X59.282 Y97.980 E1.0383
G1 X59.989 Y97.980 E1.0677
G1 X64.029 Y102.020 E1.3053
G1 X64.736 Y102.020 E1.3347
G1 X60.696 Y97.980 E1.5722
G1 X61.403 Y97.980 E1.6016
G1 X65.443 Y102.020 E1.8391
G1 X66.150 Y102.020 E1.8685
G1 X62.110 Y97.980 E2.1061
G1 X62.817 Y97.980 E2.1355
G1 X66.857 Y102.020 E2.3730
G1 X67.564 Y102.020 E2.4024
G1 X63.524 Y97.980 E2.6400
G1 X64.231 Y97.980 E2.6694
G1 X68.271 Y102.020 E2.9069
G1 X68.978 Y102.020 E2.9363
G1 X64.938 Y97.980 E3.1738
G1 X65.645 Y97.980 E3.2032
G1 X69.685 Y102.020 E3.4408
G1 X70.393 Y102.020 E3.4702
G1 X66.353 Y97.980 E3.7077
G1 X67.060 Y97.980 E3.7371
G1 X71.100 Y102.020 E3.9746
G1 X71.807 Y102.020 E4.0040
G1 X67.767 Y97.980 E4.2416
G1 X68.474 Y97.980 E4.2710
G1 X72.514 Y102.020 E4.5085
G1 X73.221 Y102.020 E4.5379
G1 X69.181 Y97.980 E4.7754
G1 X69.888 Y97.980 E4.8048
G1 X73.928 Y102.020 E5.0424
G1 X74.635 Y102.020 E5.0718
G1 X70.595 Y97.980 E5.3093
G1 X71.302 Y97.980 E5.3387
G1 X75.342 Y102.020 E5.5762
G1 X76.049 Y102.020 E5.6056
G1 X72.009 Y97.980 E5.8432
G1 X72.717 Y97.980 E5.8726
G1 X76.757 Y102.020 E6.1101
G1 X77.464 Y102.020 E6.1395
G1 X73.424 Y97.980 E6.3770
G1 X74.131 Y97.980 E6.4064
G1 X78.171 Y102.020 E6.6440
G1 X78.878 Y102.020 E6.6734
G1 X74.838 Y97.980 E6.9109
G1 X75.545 Y97.980 E6.9403
G1 X79.585 Y102.020 E7.1779
G1 X80.292 Y102.020 E7.2073
G1 X76.252 Y97.980 E7.4448
G1 X76.959 Y97.980 E7.4742
G1 X80.999 Y102.020 E7.7117
G1 X81.706 Y102.020 E7.7411
G1 X77.666 Y97.980 E7.9787
G1 X78.373 Y97.980 E8.0081
G1 X82.413 Y102.020 E8.2456
G1 X83.121 Y102.020 E8.2750
G1 X79.081 Y97.980 E8.5125
G1 X79.788 Y97.980 E8.5419
G1 X83.828 Y102.020 E8.7795
G1 X84.535 Y102.020 E8.8089
G1 X80.495 Y97.980 E9.0464
G1 X81.202 Y97.980 E9.0758
G1 X85.242 Y102.020 E9.3133
G1 X85.949 Y102.020 E9.3427
G1 X81.909 Y97.980 E9.5803
G1 X82.616 Y97.980 E9.6097
G1 X86.656 Y102.020 E9.8472
G1 X87.363 Y102.020 E9.8766
G1 X83.323 Y97.980 E10.1141
G1 X84.030 Y97.980 E10.1435
G1 X88.070 Y102.020 E10.3811
G1 X88.777 Y102.020 E10.4105
G1 X84.737 Y97.980 E10.6480
G1 X85.444 Y97.980 E10.6774
G1 X89.484 Y102.020 E10.9149
G1 X90.192 Y102.020 E10.9443
G1 X85.955 Y97.783 E11.1934
G1 X86.309 Y97.430 E11.2142
G1 X90.899 Y102.020 E11.4841
G1 X91.606 Y102.020 E11.5135
G1 X86.662 Y97.076 E11.8042
G1 X87.016 Y96.723 E11.8250
G1 X92.313 Y102.020 E12.1364
G1 X93.020 Y102.020 E12.1658
G1 X87.369 Y96.369 E12.4981
G1 X87.723 Y96.016 E12.5189
G1 X93.020 Y101.313 E12.8303
G1 X93.020 Y100.606 E12.8597
G1 X88.076 Y95.662 E13.1504
G1 X88.430 Y95.309 E13.1712
G1 X93.020 Y99.899 E13.4410
G1 X93.020 Y99.192 E13.4704
G1 X88.783 Y94.955 E13.7195
G1 X88.980 Y94.758 E13.7311
G1 X88.980 Y94.444 E13.7442
G1 X93.020 Y98.484 E13.9817
G1 X93.020 Y97.777 E14.0111
G1 X88.980 Y93.737 E14.2486
G1 X88.980 Y93.030 E14.2780
G1 X93.020 Y97.070 E14.5156
G1 X93.020 Y96.363 E14.5450
G1 X88.980 Y92.323 E14.7825
G1 X88.980 Y91.616 E14.8119
G1 X93.020 Y95.656 E15.0494
G1 X93.020 Y94.949 E15.0788
G1 X88.980 Y90.909 E15.3164
G1 X88.980 Y90.202 E15.3458
G1 X93.020 Y94.242 E15.5833
G1 X93.020 Y93.535 E15.6127
G1 X88.980 Y89.495 E15.8502
G1 X88.980 Y88.788 E15.8796
G1 X93.020 Y92.828 E16.1172
G1 X93.020 Y92.120 E16.1466
G1 X88.980 Y88.080 E16.3841
G1 X88.980 Y87.373 E16.4135
G1 X93.020 Y91.413 E16.6510
G1 X93.020 Y90.706 E16.6804
G1 X88.980 Y86.666 E16.9180
G1 X88.980 Y85.959 E16.9474
G1 X93.020 Y89.999 E17.1849
G1 X93.020 Y89.292 E17.2143
G1 X88.980 Y85.252 E17.4518
G1 X88.980 Y84.545 E17.4812
G1 X93.020 Y88.585 E17.7188
G1 X93.020 Y87.878 E17.7482
G1 X88.980 Y83.838 E17.9857
G1 X88.980 Y83.131 E18.0151
G1 X93.020 Y87.171 E18.2527
G1 X93.020 Y86.464 E18.2821
G1 X88.980 Y82.424 E18.5196
G1 X88.980 Y81.717 E18.5490
G1 X93.020 Y85.757 E18.7865
G1 X93.020 Y85.049 E18.8159
G1 X88.980 Y81.009 E19.0535
G1 X88.980 Y80.302 E19.0829
G1 X93.020 Y84.342 E19.3204
G1 X93.020 Y83.635 E19.3498
G1 X88.980 Y79.595 E19.5873
G1 X88.980 Y78.888 E19.6167
G1 X93.020 Y82.928 E19.8543
G1 X93.020 Y82.221 E19.8837
G1 X88.980 Y78.181 E20.1212
G1 X88.980 Y77.474 E20.1506
G1 X93.020 Y81.514 E20.3881
G1 X93.020 Y80.807 E20.4175
G1 X88.980 Y76.767 E20.6551
G1 X88.980 Y76.060 E20.6845
G1 X93.020 Y80.100 E20.9220
G1 X93.020 Y79.393 E20.9514
G1 X88.980 Y75.353 E21.1889
G1 X88.980 Y74.645 E21.2183
G1 X93.020 Y78.685 E21.4559
G1 X93.020 Y77.978 E21.4853
G1 X88.980 Y73.938 E21.7228
G1 X88.980 Y73.231 E21.7522
G1 X93.020 Y77.271 E21.9897
G1 X93.020 Y76.564 E22.0191
G1 X88.980 Y72.524 E22.2567
G1 X88.980 Y71.817 E22.2861
G1 X93.020 Y75.857 E22.5236
G1 X93.020 Y75.150 E22.5530
G1 X88.980 Y71.110 E22.7906
G1 X88.980 Y70.403 E22.8199
G1 X93.020 Y74.443 E23.0575
G1 X93.020 Y73.736 E23.0869
G1 X88.980 Y69.696 E23.3244
G1 X88.980 Y68.989 E23.3538
G1 X93.020 Y73.029 E23.5914
G1 X93.020 Y72.322 E23.6208
G1 X88.980 Y68.281 E23.8583
G1 X88.980 Y67.574 E23.8877
G1 X93.020 Y71.614 E24.1252
G1 X93.020 Y70.907 E24.1546
G1 X88.980 Y66.867 E24.3922
G1 X88.980 Y66.160 E24.4216
G1 X93.020 Y70.200 E24.6591
G1 X93.020 Y69.493 E24.6885
G1 X89.121 Y65.594 E24.9177
G1 X88.980 Y65.453 F840
G1 X92.821 Y57.980 F4200
G92 E0
G1 X93.020 Y58.179 E0.0117 F840
G1 X93.020 Y58.886 E0.0411
G1 X92.114 Y57.980 E0.0944
G1 X91.406 Y57.980 E0.1238
G1 X93.020 Y59.594 E0.2187
G1 X93.020 Y60.301 E0.2481
G1 X90.699 Y57.980 E0.3845
G1 X89.992 Y57.980 E0.4139
G1 X93.020 Y61.008 E0.5920
G1 X93.020 Y61.715 E0.6214
G1 X89.285 Y57.980 E0.8410
G1 X88.578 Y57.980 E0.8704
G1 X93.020 Y62.422 E1.1315
G1 X93.020 Y63.129 E1.1609
G1 X87.871 Y57.980 E1.4637
G1 X87.164 Y57.980 E1.4931
G1 X93.020 Y63.836 E1.8374
G1 X93.020 Y64.543 E1.8668
G1 X86.457 Y57.980 E2.2527
G1 X85.750 Y57.980 E2.2821
G1 X93.020 Y65.250 E2.7096
G1 X93.020 Y65.958 E2.7390
G1 X85.042 Y57.980 E3.2080
G1 X84.335 Y57.980 E3.2374
G1 X93.020 Y66.665 E3.7480
G1 X93.020 Y67.372 E3.7774
G1 X83.628 Y57.980 E4.3296
G1 X82.921 Y57.980 E4.3590
G1 X93.020 Y68.079 E4.9528
G1 X93.020 Y68.786 E4.9822
G1 X82.214 Y57.980 E5.6176
G1 X81.507 Y57.980 E5.6470
G1 X85.547 Y62.020 E5.8845
G1 X84.840 Y62.020 E5.9139
G1 X80.800 Y57.980 E6.1514
G1 X80.093 Y57.980 E6.1808
G1 X84.133 Y62.020 E6.4184
G1 X83.426 Y62.020 E6.4478
G1 X79.386 Y57.980 E6.6853
G1 X78.678 Y57.980 E6.7147
G1 X82.718 Y62.020 E6.9522
G1 X82.011 Y62.020 E6.9816
G1 X77.971 Y57.980 E7.2192
G1 X77.264 Y57.980 E7.2486
