; G-Code generated by Simplify3D(R) Version 4.0.0
; Aug 16, 2017 at 8:24:15 PM
; Settings Summary
;   processName,Process1
;   applyToModels,Head (repaired),Head (repaired)(2),Head (repaired)(3),Head (repaired)(3)(2)
;   profileName,UPSM-PC
;   profileVersion,2017-08-06 20:03:19
;   baseProfile,Default
;   printMaterial,PC
;   printQuality,High
;   printExtruders,
;   extruderName,Extruder 1
;   extruderToolheadNumber,0
;   extruderDiameter,0.4
;   extruderAutoWidth,0
;   extruderWidth,0.48
;   extrusionMultiplier,1
;   extruderUseRetract,1
;   extruderRetractionDistance,0.7
;   extruderExtraRestartDistance,0
;   extruderRetractionZLift,0
;   extruderRetractionSpeed,1800
;   extruderUseCoasting,1
;   extruderCoastingDistance,0.2
;   extruderUseWipe,0
;   extruderWipeDistance,5
;   primaryExtruder,0
;   layerHeight,0.2
;   topSolidLayers,4
;   bottomSolidLayers,2
;   perimeterOutlines,3
;   printPerimetersInsideOut,1
;   startPointOption,2
;   startPointOriginX,0
;   startPointOriginY,0
;   sequentialIslands,0
;   spiralVaseMode,0
;   firstLayerHeightPercentage,90
;   firstLayerWidthPercentage,100
;   firstLayerUnderspeed,0.1
;   useRaft,0
;   raftExtruder,0
;   raftTopLayers,3
;   raftBaseLayers,2
;   raftOffset,3
;   raftSeparationDistance,0.14
;   raftTopInfill,100
;   aboveRaftSpeedMultiplier,0.3
;   useSkirt,0
;   skirtExtruder,0
;   skirtLayers,1
;   skirtOutlines,1
;   skirtOffset,3
;   usePrimePillar,0
;   primePillarExtruder,999
;   primePillarWidth,12
;   primePillarLocation,7
;   primePillarSpeedMultiplier,1
;   useOozeShield,0
;   oozeShieldExtruder,999
;   oozeShieldOffset,2
;   oozeShieldOutlines,1
;   oozeShieldSidewallShape,1
;   oozeShieldSidewallAngle,30
;   oozeShieldSpeedMultiplier,1
;   infillExtruder,0
;   internalInfillPattern,Rectilinear
;   externalInfillPattern,Rectilinear
;   infillPercentage,25
;   outlineOverlapPercentage,50
;   infillExtrusionWidthPercentage,100
;   minInfillLength,1
;   infillLayerInterval,1
;   internalInfillAngles,45,-45
;   overlapInternalInfillAngles,0
;   externalInfillAngles,45,-45
;   generateSupport,0
;   supportExtruder,0
;   supportInfillPercentage,50
;   supportExtraInflation,0
;   supportBaseLayers,1
;   denseSupportExtruder,0
;   denseSupportLayers,2
;   denseSupportInfillPercentage,80
;   supportLayerInterval,1
;   supportHorizontalPartOffset,0.3
;   supportUpperSeparationLayers,1
;   supportLowerSeparationLayers,1
;   supportType,0
;   supportGridSpacing,4
;   maxOverhangAngle,45
;   supportAngles,0
;   temperatureName,Extruder 1,Heated Bed
;   temperatureNumber,0,0
;   temperatureSetpointCount,1,1
;   temperatureSetpointLayers,1,1
;   temperatureSetpointTemperatures,290,100
;   temperatureStabilizeAtStartup,1,1
;   temperatureHeatedBed,0,1
;   temperatureRelayBetweenLayers,0,0
;   temperatureRelayBetweenLoops,0,0
;   fanLayers,1
;   fanSpeeds,0
;   blipFanToFullPower,0
;   adjustSpeedForCooling,0
;   minSpeedLayerTime,15
;   minCoolingSpeedSlowdown,20
;   increaseFanForCooling,0
;   minFanLayerTime,45
;   maxCoolingFanSpeed,100
;   increaseFanForBridging,0
;   bridgingFanSpeed,100
;   use5D,1
;   relativeEdistances,0
;   allowEaxisZeroing,1
;   independentExtruderAxes,0
;   includeM10123,0
;   stickySupport,1
;   applyToolheadOffsets,0
;   gcodeXoffset,0
;   gcodeYoffset,0
;   gcodeZoffset,0
;   overrideMachineDefinition,1
;   machineTypeOverride,0
;   strokeXoverride,142
;   strokeYoverride,160
;   strokeZoverride,135
;   originOffsetXoverride,0
;   originOffsetYoverride,0
;   originOffsetZoverride,0
;   homeXdirOverride,-1
;   homeYdirOverride,-1
;   homeZdirOverride,-1
;   flipXoverride,1
;   flipYoverride,-1
;   flipZoverride,1
;   toolheadOffsets,0,0|0,0|0,0|0,0|0,0|0,0
;   overrideFirmwareConfiguration,0
;   firmwareTypeOverride,RepRap (Marlin/Repetier/Sprinter)
;   GPXconfigOverride,r2
;   baudRateOverride,250000
;   overridePrinterModels,0
;   printerModelsOverride
;   startingGcode,M17,G28,G28 Z,M200 D0,,
;   layerChangeGcode,
;   retractionGcode,
;   toolChangeGcode,
;   endingGcode,M104 S0 ; turn off extruder,M140 S0 ; turn off bed,M84 ; disable motors
;   exportFileFormat,gcode
;   celebration,0
;   celebrationSong,Random Song
;   postProcessing,E:\bin\curl-7.50.3-win64-mingw\bin\curl.exe -H "X-Api-Key: A0748F07268D4763BED4B3A78AA7E1C3" -F "select=false" -F "print=false" -F "file=@[output_filepath]" "http://192.168.90.61/api/files/local"
;   defaultSpeed,1200
;   outlineUnderspeed,0.8
;   solidInfillUnderspeed,1
;   supportUnderspeed,1
;   rapidXYspeed,4800
;   rapidZspeed,600
;   minBridgingArea,5
;   bridgingExtraInflation,3
;   bridgingExtrusionMultiplier,1
;   bridgingSpeedMultiplier,0.1
;   useFixedBridgingAngle,0
;   fixedBridgingAngle,0
;   applyBridgingToPerimeters,1
;   filamentDiameters,1.75|1.75|1.75|1.75|1.75|1.75
;   filamentPricesPerKg,46|46|46|46|46|46
;   filamentDensities,1.25|1.25|1.25|1.25|1.25|1.25
;   useMinPrintHeight,0
;   minPrintHeight,0
;   useMaxPrintHeight,0
;   maxPrintHeight,0
;   useDiaphragm,0
;   diaphragmLayerInterval,20
;   robustSlicing,1
;   mergeAllIntoSolid,0
;   onlyRetractWhenCrossingOutline,1
;   retractBetweenLayers,1
;   useRetractionMinTravel,0
;   retractionMinTravel,3
;   retractWhileWiping,0
;   onlyWipeOutlines,1
;   avoidCrossingOutline,1
;   maxMovementDetourFactor,999
;   toolChangeRetractionDistance,12
;   toolChangeExtraRestartDistance,-0.5
;   toolChangeRetractionSpeed,600
;   externalThinWallType,1
;   internalThinWallType,2
;   thinWallAllowedOverlapPercentage,80
;   singleExtrusionMinLength,0
;   singleExtrusionMinPrintingWidthPercentage,60
;   singleExtrusionMaxPrintingWidthPercentage,150
;   singleExtrusionEndpointExtension,0.2
;   horizontalSizeCompensation,0
G90
M82
M106 S0
M140 S100
M190 S100
M104 S290 T0
M109 S290 T0
M17
G28
G28 Z
M200 D0
G92 E0
G1 E-0.7000 F1800
G1 Z0.180 F600
; process Process1
; layer 1, Z = 0.180
T0
; tool H0.200 W0.480
; inner perimeter
G1 X35.208 Y42.376 F4800
G1 E0.0000 F540
G92 E0
G1 X35.265 Y42.336 E0.0028 F108
G1 X35.369 Y42.409 E0.0079
G1 X35.372 Y42.440 E0.0091
G1 X35.606 Y42.901 E0.0297
G1 X35.744 Y43.384 E0.0498
G1 X36.619 Y47.010 E0.1986
G1 X37.032 Y49.567 E0.3020
G1 X37.305 Y52.492 E0.4193
G1 X37.365 Y55.261 E0.5298
G1 X37.343 Y55.999 E0.5593
G1 X35.337 Y58.005 E0.6725
G1 X35.337 Y111.389 E2.8032
G1 X35.197 Y111.389 E2.8088
G1 X35.197 Y58.006 E4.9394
G1 X33.193 Y56.001 E5.0526
G1 X33.172 Y55.208 E5.0842
G1 X33.223 Y52.969 E5.1736
G1 X33.224 Y52.587 E5.1888
G1 X33.518 Y49.447 E5.3147
G1 X33.769 Y47.791 E5.3815
G1 X33.844 Y47.421 E5.3966
G1 X34.861 Y43.134 E5.5725
G1 X35.091 Y42.678 E5.5929
G1 X35.108 Y42.546 E5.5982
G1 X35.111 Y42.522 F108
G1 X35.208 Y42.376 F108
G1 X34.858 Y42.036 F4800
G92 E0
G1 X35.045 Y41.903 E0.0092 F108
G1 X35.251 Y41.798 E0.0184
G1 X35.464 Y41.890 E0.0276
G1 X35.801 Y42.125 E0.0441
G1 X35.834 Y42.205 E0.0475
G1 X35.842 Y42.306 E0.0515
G1 X36.055 Y42.725 E0.0703
G1 X36.208 Y43.262 E0.0926
G1 X37.090 Y46.915 E0.2426
G1 X37.508 Y49.506 E0.3473
G1 X37.785 Y52.465 E0.4659
G1 X37.845 Y55.264 E0.5776
G1 X37.817 Y56.204 E0.6152
G1 X35.817 Y58.204 E0.7281
G1 X35.817 Y111.869 E2.8700
G1 X34.717 Y111.869 E2.9139
G1 X34.717 Y58.205 E5.0557
G1 X32.718 Y56.205 E5.1686
G1 X32.692 Y55.209 E5.2083
G1 X32.743 Y52.963 E5.2980
G1 X32.744 Y52.564 E5.3139
G1 X33.042 Y49.389 E5.4412
G1 X33.297 Y47.708 E5.5091
G1 X33.375 Y47.318 E5.5249
G1 X34.391 Y43.033 E5.7007
G1 X34.389 Y43.003 E5.7019
G1 X34.625 Y42.535 E5.7228
G1 X34.649 Y42.349 E5.7303
G1 X34.747 Y42.202 E5.7374
G1 X34.858 Y42.036 F108
; outer perimeter
G1 X34.508 Y41.696 F4800
G92 E0
G1 X34.795 Y41.491 E0.0141 F96
G1 X35.092 Y41.341 E0.0273
G1 X35.116 Y41.330 E0.0284
G1 X35.261 Y41.310 E0.0343
G1 X35.334 Y41.312 E0.0372
G1 X35.698 Y41.468 E0.0530
G1 X36.193 Y41.813 E0.0771
G1 X36.306 Y42.092 E0.0891
G1 X36.313 Y42.172 E0.0923
G1 X36.504 Y42.549 E0.1091
G1 X36.672 Y43.140 E0.1336
G1 X37.561 Y46.820 E0.2848
G1 X37.985 Y49.445 E0.3909
G1 X38.265 Y52.437 E0.5108
G1 X38.326 Y55.266 E0.6237
G1 X38.291 Y56.409 E0.6694
G1 X36.297 Y58.403 E0.7819
G1 X36.297 Y112.349 E2.9350
G1 X34.237 Y112.349 E3.0173
G1 X34.237 Y58.404 E5.1703
G1 X32.243 Y56.409 E5.2829
G1 X32.212 Y55.210 E5.3308
G1 X32.263 Y52.957 E5.4207
G1 X32.264 Y52.541 E5.4373
G1 X32.565 Y49.330 E5.5660
G1 X32.824 Y47.625 E5.6349
G1 X32.906 Y47.216 E5.6515
G1 X33.907 Y42.993 E5.8247
G1 X33.901 Y42.904 E5.8283
G1 X34.159 Y42.392 E5.8512
G1 X34.187 Y42.176 E5.8599
G1 X34.397 Y41.862 E5.8749
G1 X34.508 Y41.696 F96
; solid layer
G1 X35.268 Y42.860 F4800
G92 E0
G1 X35.366 Y42.959 E0.0056 F120
G1 X35.382 Y42.989 E0.0069
G1 X35.512 Y43.445 E0.0259
G1 X35.619 Y43.891 E0.0441
G1 X35.060 Y43.332 E0.0757
G1 X34.930 Y43.880 E0.0982
G1 X35.835 Y44.786 E0.1493
G1 X36.052 Y45.681 E0.1860
G1 X34.800 Y44.429 E0.2567
G1 X34.670 Y44.978 E0.2792
G1 X36.268 Y46.575 E0.3694
G1 X36.384 Y47.057 E0.3891
G1 X36.444 Y47.431 E0.4043
G1 X34.540 Y45.526 E0.5118
G1 X34.410 Y46.075 E0.5343
G1 X36.575 Y48.240 E0.6565
G1 X36.705 Y49.050 E0.6892
G1 X34.279 Y46.624 E0.8261
G1 X34.149 Y47.172 E0.8486
G1 X36.816 Y49.839 E0.9992
G1 X36.886 Y50.588 E1.0292
G1 X34.027 Y47.729 E1.1906
G1 X34.006 Y47.833 E1.1948
G1 X33.933 Y48.314 E1.2142
G1 X36.956 Y51.337 E1.3849
G1 X37.026 Y52.086 E1.4149
G1 X33.844 Y48.903 E1.5946
G1 X33.757 Y49.477 E1.6177
G1 X33.755 Y49.493 E1.6184
G1 X37.072 Y52.811 E1.8056
G1 X37.087 Y53.505 E1.8333
G1 X33.697 Y50.114 E2.0247
G1 X33.639 Y50.735 E2.0496
G1 X37.102 Y54.198 E2.2451
G1 X37.117 Y54.892 E2.2728
G1 X33.580 Y51.355 E2.4724
G1 X33.522 Y51.976 E2.4973
G1 X37.116 Y55.569 E2.7001
G1 X37.106 Y55.897 E2.7132
G1 X36.935 Y56.068 E2.7228
G1 X33.464 Y52.596 E2.9188
G1 X33.464 Y52.599 E2.9188
G1 X33.463 Y52.972 E2.9337
G1 X33.456 Y53.268 E2.9455
G1 X36.596 Y56.407 E3.1227
G1 X36.256 Y56.746 E3.1419
G1 X33.441 Y53.931 E3.3008
G1 X33.426 Y54.595 E3.3273
G1 X35.917 Y57.086 E3.4679
G1 X35.577 Y57.425 E3.4871
G1 X33.555 Y55.403 E3.6012
G1 X33.413 Y55.261 F120
G92 E0
G1 E-0.7000 F1800
; inner perimeter
G1 X55.333 Y55.208 F4800
G1 E0.0000 F1800
G92 E0
G1 X55.384 Y52.969 E0.0894 F108
G1 X55.385 Y52.587 E0.1046
G1 X55.680 Y49.447 E0.2305
G1 X55.931 Y47.791 E0.2974
G1 X56.005 Y47.421 E0.3124
G1 X57.022 Y43.134 E0.4883
G1 X57.252 Y42.678 E0.5087
G1 X57.272 Y42.522 E0.5149
G1 X57.370 Y42.376 E0.5220
G1 X57.426 Y42.336 E0.5247
G1 X57.531 Y42.409 E0.5298
G1 X57.533 Y42.440 E0.5311
G1 X57.767 Y42.901 E0.5517
G1 X57.905 Y43.384 E0.5717
G1 X58.781 Y47.010 E0.7206
G1 X59.193 Y49.567 E0.8240
G1 X59.467 Y52.492 E0.9413
G1 X59.526 Y55.261 E1.0518
G1 X59.504 Y55.999 E1.0813
G1 X57.498 Y58.005 E1.1945
G1 X57.498 Y111.389 E3.3251
G1 X57.358 Y111.389 E3.3307
G1 X57.358 Y58.006 E5.4614
G1 X55.354 Y56.001 E5.5745
G1 X55.338 Y55.408 E5.5982
G1 X55.333 Y55.208 F108
G1 X54.853 Y55.209 F4800
G92 E0
G1 X54.904 Y52.963 E0.0897 F108
G1 X54.905 Y52.564 E0.1056
G1 X55.203 Y49.389 E0.2329
G1 X55.458 Y47.708 E0.3007
G1 X55.536 Y47.318 E0.3166
G1 X56.552 Y43.033 E0.4924
G1 X56.550 Y43.003 E0.4936
G1 X56.786 Y42.535 E0.5145
G1 X56.810 Y42.349 E0.5220
G1 X57.020 Y42.036 E0.5370
G1 X57.206 Y41.903 E0.5462
G1 X57.412 Y41.798 E0.5554
G1 X57.625 Y41.890 E0.5646
G1 X57.963 Y42.125 E0.5811
G1 X57.995 Y42.205 E0.5845
G1 X58.004 Y42.306 E0.5885
G1 X58.216 Y42.725 E0.6073
G1 X58.369 Y43.262 E0.6296
G1 X59.252 Y46.915 E0.7796
G1 X59.669 Y49.506 E0.8843
G1 X59.946 Y52.465 E1.0029
G1 X60.007 Y55.264 E1.1147
G1 X59.978 Y56.204 E1.1522
G1 X57.978 Y58.204 E1.2651
G1 X57.978 Y111.869 E3.4070
G1 X56.878 Y111.869 E3.4509
G1 X56.878 Y58.205 E5.5927
G1 X54.879 Y56.205 E5.7056
G1 X54.858 Y55.409 E5.7374
G1 X54.853 Y55.209 F108
; outer perimeter
G1 X54.373 Y55.210 F4800
G92 E0
G1 X54.424 Y52.957 E0.0900 F96
G1 X54.425 Y52.541 E0.1065
G1 X54.726 Y49.330 E0.2353
G1 X54.985 Y47.625 E0.3041
G1 X55.067 Y47.216 E0.3208
G1 X56.069 Y42.993 E0.4940
G1 X56.063 Y42.904 E0.4975
G1 X56.321 Y42.392 E0.5204
G1 X56.348 Y42.176 E0.5291
G1 X56.670 Y41.696 E0.5522
G1 X56.957 Y41.491 E0.5662
G1 X57.253 Y41.341 E0.5795
G1 X57.277 Y41.330 E0.5805
G1 X57.422 Y41.310 E0.5864
G1 X57.495 Y41.312 E0.5893
G1 X57.859 Y41.468 E0.6051
G1 X58.354 Y41.813 E0.6292
G1 X58.467 Y42.092 E0.6412
G1 X58.474 Y42.172 E0.6444
G1 X58.665 Y42.549 E0.6613
G1 X58.834 Y43.140 E0.6858
G1 X59.722 Y46.820 E0.8369
G1 X60.146 Y49.445 E0.9431
G1 X60.426 Y52.437 E1.0630
G1 X60.487 Y55.266 E1.1759
G1 X60.452 Y56.409 E1.2216
G1 X58.458 Y58.403 E1.3341
G1 X58.458 Y112.349 E3.4872
G1 X56.398 Y112.349 E3.5694
G1 X56.398 Y58.404 E5.7225
G1 X54.405 Y56.409 E5.8351
G1 X54.378 Y55.410 E5.8749
G1 X54.373 Y55.210 F96
; solid layer
G1 X55.587 Y55.712 F4800
G92 E0
G1 X57.519 Y57.645 E0.1091 F120
G1 X57.859 Y57.305 E0.1282
G1 X55.577 Y55.024 E0.2570
G1 X55.593 Y54.360 E0.2835
G1 X58.198 Y56.966 E0.4306
G1 X58.537 Y56.626 E0.4497
G1 X55.608 Y53.697 E0.6151
G1 X55.623 Y53.033 E0.6416
G1 X58.877 Y56.287 E0.8253
G1 X59.216 Y55.948 E0.8444
G1 X55.646 Y52.377 E1.0460
G1 X55.704 Y51.756 E1.0708
G1 X59.284 Y55.337 E1.2729
G1 X59.286 Y55.260 E1.2760
G1 X59.273 Y54.647 E1.3004
G1 X55.762 Y51.136 E1.4986
G1 X55.820 Y50.515 E1.5235
G1 X59.258 Y53.953 E1.7175
G1 X59.243 Y53.259 E1.7452
G1 X55.879 Y49.895 E1.9352
G1 X55.918 Y49.476 E1.9519
G1 X55.947 Y49.284 E1.9597
G1 X59.228 Y52.565 E2.1449
G1 X59.227 Y52.506 E2.1472
G1 X59.163 Y51.821 E2.1747
G1 X56.036 Y48.695 E2.3512
G1 X56.126 Y48.105 E2.3750
G1 X59.093 Y51.072 E2.5424
G1 X59.023 Y50.323 E2.5725
G1 X56.228 Y47.529 E2.7302
G1 X56.239 Y47.472 E2.7325
G1 X56.356 Y46.978 E2.7528
G1 X58.951 Y49.573 E2.8992
G1 X58.820 Y48.763 E2.9319
G1 X56.487 Y46.430 E3.0636
G1 X56.617 Y45.881 E3.0861
G1 X58.690 Y47.954 E3.2032
G1 X58.559 Y47.145 E3.2359
G1 X56.747 Y45.332 E3.3382
G1 X56.877 Y44.784 E3.3607
G1 X58.352 Y46.259 E3.4440
G1 X58.136 Y45.364 E3.4807
G1 X57.007 Y44.235 E3.5444
G1 X57.137 Y43.686 E3.5669
G1 X57.920 Y44.469 E3.6111
G1 X57.704 Y43.574 E3.6479
G1 X57.423 Y43.293 E3.6637
G1 X57.282 Y43.152 F120
G92 E0
G1 E-0.7000 F1800
; inner perimeter
G1 X58.922 Y43.487 F4800
G1 X59.727 Y46.819 F4800
G1 X60.150 Y49.445 F4800
G1 X78.166 Y47.421 F4800
G1 E0.0000 F1800
G92 E0
G1 X79.183 Y43.134 E0.1758 F108
G1 X79.413 Y42.678 E0.1962
G1 X79.433 Y42.522 E0.2025
G1 X79.531 Y42.376 E0.2095
G1 X79.587 Y42.336 E0.2123
G1 X79.692 Y42.409 E0.2174
G1 X79.694 Y42.440 E0.2186
G1 X79.929 Y42.901 E0.2393
G1 X80.066 Y43.384 E0.2593
G1 X80.942 Y47.010 E0.4082
G1 X81.354 Y49.567 E0.5115
G1 X81.628 Y52.492 E0.6288
G1 X81.688 Y55.261 E0.7394
G1 X81.665 Y55.999 E0.7688
G1 X79.660 Y58.005 E0.8820
G1 X79.660 Y111.389 E3.0127
G1 X79.519 Y111.389 E3.0183
G1 X79.519 Y58.006 E5.1489
G1 X77.515 Y56.001 E5.2621
G1 X77.494 Y55.208 E5.2937
G1 X77.545 Y52.969 E5.3831
G1 X77.546 Y52.587 E5.3983
G1 X77.841 Y49.447 E5.5242
G1 X78.092 Y47.791 E5.5911
G1 X78.127 Y47.617 E5.5982
G1 X78.166 Y47.421 F108
G1 X77.697 Y47.318 F4800
G92 E0
G1 X78.714 Y43.033 E0.1758 F108
G1 X78.712 Y43.003 E0.1770
G1 X78.947 Y42.535 E0.1979
G1 X78.971 Y42.349 E0.2054
G1 X79.181 Y42.036 E0.2204
G1 X79.367 Y41.903 E0.2296
G1 X79.573 Y41.798 E0.2388
G1 X79.786 Y41.890 E0.2480
G1 X80.124 Y42.125 E0.2645
G1 X80.156 Y42.205 E0.2679
G1 X80.165 Y42.306 E0.2719
G1 X80.378 Y42.725 E0.2907
G1 X80.530 Y43.262 E0.3130
G1 X81.413 Y46.915 E0.4630
G1 X81.831 Y49.506 E0.5677
G1 X82.107 Y52.465 E0.6863
G1 X82.168 Y55.264 E0.7981
G1 X82.139 Y56.204 E0.8356
G1 X80.140 Y58.204 E0.9485
G1 X80.140 Y111.869 E3.0904
G1 X79.040 Y111.869 E3.1343
G1 X79.040 Y58.205 E5.2761
G1 X77.041 Y56.205 E5.3890
G1 X77.014 Y55.209 E5.4287
G1 X77.065 Y52.963 E5.5184
