; G-Code generated by Simplify3D(R) Version 4.0.0
; Oct 18, 2017 at 4:26:18 PM
; Settings Summary
;   processName,Process1
;   applyToModels,lansky8
;   profileName,UPSM-PLA
;   profileVersion,2017-09-11 23:07:23
;   baseProfile,Default
;   printMaterial,PLA
;   printQuality,High
;   printExtruders,
;   extruderName,Extruder 1
;   extruderToolheadNumber,0
;   extruderDiameter,0.4
;   extruderAutoWidth,0
;   extruderWidth,0.5
;   extrusionMultiplier,0.95
;   extruderUseRetract,1
;   extruderRetractionDistance,1
;   extruderExtraRestartDistance,0
;   extruderRetractionZLift,0.1
;   extruderRetractionSpeed,1800
;   extruderUseCoasting,1
;   extruderCoastingDistance,0.25
;   extruderUseWipe,1
;   extruderWipeDistance,1.5
;   primaryExtruder,0
;   layerHeight,0.25
;   topSolidLayers,4
;   bottomSolidLayers,3
;   perimeterOutlines,4
;   printPerimetersInsideOut,1
;   startPointOption,2
;   startPointOriginX,0
;   startPointOriginY,0
;   sequentialIslands,0
;   spiralVaseMode,0
;   firstLayerHeightPercentage,100
;   firstLayerWidthPercentage,80
;   firstLayerUnderspeed,0.2
;   useRaft,0
;   raftExtruder,0
;   raftTopLayers,3
;   raftBaseLayers,2
;   raftOffset,3
;   raftSeparationDistance,0.14
;   raftTopInfill,100
;   aboveRaftSpeedMultiplier,0.3
;   useSkirt,0
;   skirtExtruder,0
;   skirtLayers,1
;   skirtOutlines,5
;   skirtOffset,0
;   usePrimePillar,0
;   primePillarExtruder,999
;   primePillarWidth,12
;   primePillarLocation,7
;   primePillarSpeedMultiplier,1
;   useOozeShield,0
;   oozeShieldExtruder,999
;   oozeShieldOffset,2
;   oozeShieldOutlines,1
;   oozeShieldSidewallShape,1
;   oozeShieldSidewallAngle,30
;   oozeShieldSpeedMultiplier,1
;   infillExtruder,0
;   internalInfillPattern,Full Honeycomb
;   externalInfillPattern,Rectilinear
;   infillPercentage,20
;   outlineOverlapPercentage,75
;   infillExtrusionWidthPercentage,100
;   minInfillLength,1
;   infillLayerInterval,1
;   internalInfillAngles,0,120,-120
;   overlapInternalInfillAngles,0
;   externalInfillAngles,45,-45
;   generateSupport,0
;   supportExtruder,0
;   supportInfillPercentage,30
;   supportExtraInflation,2
;   supportBaseLayers,1
;   denseSupportExtruder,0
;   denseSupportLayers,2
;   denseSupportInfillPercentage,80
;   supportLayerInterval,1
;   supportHorizontalPartOffset,0.3
;   supportUpperSeparationLayers,1
;   supportLowerSeparationLayers,1
;   supportType,0
;   supportGridSpacing,4
;   maxOverhangAngle,45
;   supportAngles,0
;   temperatureName,Extruder 1,Heated Bed
;   temperatureNumber,0,0
;   temperatureSetpointCount,1,1
;   temperatureSetpointLayers,1,1
;   temperatureSetpointTemperatures,215,80
;   temperatureStabilizeAtStartup,1,1
;   temperatureHeatedBed,0,1
;   temperatureRelayBetweenLayers,0,0
;   temperatureRelayBetweenLoops,0,0
;   fanLayers,1,2
;   fanSpeeds,0,70
;   blipFanToFullPower,1
;   adjustSpeedForCooling,0
;   minSpeedLayerTime,15
;   minCoolingSpeedSlowdown,20
;   increaseFanForCooling,1
;   minFanLayerTime,20
;   maxCoolingFanSpeed,100
;   increaseFanForBridging,1
;   bridgingFanSpeed,100
;   use5D,1
;   relativeEdistances,0
;   allowEaxisZeroing,1
;   independentExtruderAxes,0
;   includeM10123,0
;   stickySupport,1
;   applyToolheadOffsets,0
;   gcodeXoffset,0
;   gcodeYoffset,0
;   gcodeZoffset,0.5
;   overrideMachineDefinition,1
;   machineTypeOverride,0
;   strokeXoverride,142
;   strokeYoverride,160
;   strokeZoverride,135
;   originOffsetXoverride,0
;   originOffsetYoverride,0
;   originOffsetZoverride,0
;   homeXdirOverride,-1
;   homeYdirOverride,-1
;   homeZdirOverride,-1
;   flipXoverride,1
;   flipYoverride,-1
;   flipZoverride,1
;   toolheadOffsets,0,0|0,0|0,0|0,0|0,0|0,0
;   overrideFirmwareConfiguration,0
;   firmwareTypeOverride,RepRap (Marlin/Repetier/Sprinter)
;   GPXconfigOverride,r2
;   baudRateOverride,250000
;   overridePrinterModels,0
;   printerModelsOverride
;   startingGcode,M17,G28,G28 Z,M200 D0,M204 S400,
;   layerChangeGcode,
;   retractionGcode,
;   toolChangeGcode,
;   endingGcode,M104 S0 ; turn off extruder,M140 S0 ; turn off bed,G0 X0 Y140 ,
;   exportFileFormat,gcode
;   celebration,0
;   celebrationSong,Random Song
;   postProcessing,E:\bin\curl-7.50.3-win64-mingw\bin\curl.exe -H "X-Api-Key: A0748F07268D4763BED4B3A78AA7E1C3" -F "select=false" -F "print=false" -F "file=@[output_filepath]" "http://192.168.90.61/api/files/local"
;   defaultSpeed,4200
;   outlineUnderspeed,0.8
;   solidInfillUnderspeed,0.8
;   supportUnderspeed,1
;   rapidXYspeed,4200
;   rapidZspeed,600
;   minBridgingArea,5
;   bridgingExtraInflation,3
;   bridgingExtrusionMultiplier,1
;   bridgingSpeedMultiplier,0.4
;   useFixedBridgingAngle,0
;   fixedBridgingAngle,0
;   applyBridgingToPerimeters,1
;   filamentDiameters,1.75|1.75|1.75|1.75|1.75|1.75
;   filamentPricesPerKg,46|46|46|46|46|46
;   filamentDensities,1.25|1.25|1.25|1.25|1.25|1.25
;   useMinPrintHeight,0
;   minPrintHeight,0
;   useMaxPrintHeight,0
;   maxPrintHeight,0
;   useDiaphragm,0
;   diaphragmLayerInterval,20
;   robustSlicing,1
;   mergeAllIntoSolid,0
;   onlyRetractWhenCrossingOutline,1
;   retractBetweenLayers,1
;   useRetractionMinTravel,0
;   retractionMinTravel,3
;   retractWhileWiping,0
;   onlyWipeOutlines,1
;   avoidCrossingOutline,1
;   maxMovementDetourFactor,999
;   toolChangeRetractionDistance,12
;   toolChangeExtraRestartDistance,-0.5
;   toolChangeRetractionSpeed,600
;   externalThinWallType,1
;   internalThinWallType,1
;   thinWallAllowedOverlapPercentage,80
;   singleExtrusionMinLength,0
;   singleExtrusionMinPrintingWidthPercentage,60
;   singleExtrusionMaxPrintingWidthPercentage,150
;   singleExtrusionEndpointExtension,0.2
;   horizontalSizeCompensation,0
G90
M82
M106 S255
G4 P500
M106 S0
M140 S80
M190 S80
M104 S215 T0
M109 S215 T0
M17
G28
G28 Z
M200 D0
M204 S400
G92 E0
G1 E-1.0000 F1800
G1 Z0.850 F600
; process Process1
; layer 1, Z = 0.250
T0
; tool H0.250 W0.400
; inner perimeter
G1 X44.275 Y74.775 F4200
G1 Z0.750 F600
G1 E0.0000 F540
G92 E0
G1 X97.725 Y74.775 E2.1111 F756
G1 X97.725 Y85.225 E2.5238
G1 X44.275 Y85.225 E4.6349
G1 X44.275 Y75.025 E5.0378
G1 X44.275 Y74.775 F756
G1 X43.875 Y74.375 F4200
G92 E0
G1 X98.125 Y74.375 E2.1427 F756
G1 X98.125 Y85.625 E2.5870
G1 X43.875 Y85.625 E4.7297
G1 X43.875 Y74.625 E5.1642
G1 X43.875 Y74.375 F756
G1 X43.475 Y73.975 F4200
G92 E0
G1 X98.525 Y73.975 E2.1743 F756
G1 X98.525 Y86.025 E2.6502
G1 X43.475 Y86.025 E4.8245
G1 X43.475 Y74.225 E5.2905
G1 X43.475 Y73.975 F756
; outer perimeter
G1 X43.075 Y73.575 F4200
G92 E0
G1 X98.925 Y73.575 E2.2059 F672
G1 X98.925 Y86.425 E2.7134
G1 X43.075 Y86.425 E4.9193
G1 X43.075 Y73.825 E5.4169
G1 X43.075 Y73.575 F672
G1 X44.575 Y73.575 F4200
; solid layer
G1 X44.447 Y85.125 F4200
G92 E0
G1 X44.375 Y85.053 E0.0040 F672
G1 X44.375 Y84.488 E0.0263
G1 X45.012 Y85.125 E0.0619
G1 X45.578 Y85.125 E0.0843
G1 X44.375 Y83.922 E0.1515
G1 X44.375 Y83.356 E0.1738
G1 X46.144 Y85.125 E0.2726
G1 X46.709 Y85.125 E0.2950
G1 X44.375 Y82.791 E0.4253
G1 X44.375 Y82.225 E0.4477
G1 X47.275 Y85.125 E0.6097
G1 X47.841 Y85.125 E0.6320
G1 X44.375 Y81.659 E0.8256
G1 X44.375 Y81.094 E0.8479
G1 X48.406 Y85.125 E1.0731
G1 X48.972 Y85.125 E1.0955
G1 X44.375 Y80.528 E1.3522
G1 X44.375 Y79.962 E1.3746
G1 X49.538 Y85.125 E1.6630
G1 X50.103 Y85.125 E1.6853
G1 X44.375 Y79.397 E2.0053
G1 X44.375 Y78.831 E2.0276
G1 X50.669 Y85.125 E2.3792
G1 X51.235 Y85.125 E2.4015
G1 X44.375 Y78.265 E2.7847
G1 X44.375 Y77.699 E2.8070
G1 X51.801 Y85.125 E3.2218
G1 X52.366 Y85.125 E3.2442
G1 X44.375 Y77.134 E3.6905
G1 X44.375 Y76.568 E3.7129
G1 X52.932 Y85.125 E4.1908
G1 X53.498 Y85.125 E4.2132
G1 X44.375 Y76.002 E4.7227
G1 X44.375 Y75.437 E4.7451
G1 X54.063 Y85.125 E5.2862
G1 X54.629 Y85.125 E5.3086
G1 X44.379 Y74.875 E5.8811
G1 X44.945 Y74.875 E5.9034
G1 X55.195 Y85.125 E6.4759
G1 X55.760 Y85.125 E6.4983
G1 X45.510 Y74.875 E7.0708
G1 X46.076 Y74.875 E7.0932
G1 X56.326 Y85.125 E7.6657
G1 X56.892 Y85.125 E7.6880
G1 X46.642 Y74.875 E8.2606
G1 X47.207 Y74.875 E8.2829
G1 X57.457 Y85.125 E8.8554
G1 X58.023 Y85.125 E8.8778
G1 X47.773 Y74.875 E9.4503
G1 X48.339 Y74.875 E9.4726
G1 X58.589 Y85.125 E10.0452
G1 X59.154 Y85.125 E10.0675
G1 X48.904 Y74.875 E10.6400
G1 X49.470 Y74.875 E10.6624
G1 X59.720 Y85.125 E11.2349
G1 X60.286 Y85.125 E11.2573
G1 X50.036 Y74.875 E11.8298
G1 X50.601 Y74.875 E11.8521
G1 X60.852 Y85.125 E12.4247
G1 X61.417 Y85.125 E12.4470
G1 X51.167 Y74.875 E13.0195
G1 X51.733 Y74.875 E13.0419
G1 X61.983 Y85.125 E13.6144
G1 X62.549 Y85.125 E13.6367
G1 X52.299 Y74.875 E14.2093
G1 X52.864 Y74.875 E14.2316
G1 X63.114 Y85.125 E14.8041
G1 X63.680 Y85.125 E14.8265
G1 X53.430 Y74.875 E15.3990
G1 X53.996 Y74.875 E15.4214
G1 X64.246 Y85.125 E15.9939
G1 X64.811 Y85.125 E16.0162
G1 X54.561 Y74.875 E16.5888
G1 X55.127 Y74.875 E16.6111
G1 X65.377 Y85.125 E17.1836
G1 X65.943 Y85.125 E17.2060
G1 X55.693 Y74.875 E17.7785
G1 X56.258 Y74.875 E17.8008
G1 X66.508 Y85.125 E18.3734
G1 X67.074 Y85.125 E18.3957
G1 X56.824 Y74.875 E18.9682
G1 X57.390 Y74.875 E18.9906
G1 X67.640 Y85.125 E19.5631
G1 X68.205 Y85.125 E19.5854
G1 X57.955 Y74.875 E20.1580
G1 X58.521 Y74.875 E20.1803
G1 X68.771 Y85.125 E20.7528
G1 X69.337 Y85.125 E20.7752
G1 X59.087 Y74.875 E21.3477
G1 X59.652 Y74.875 E21.3701
G1 X69.902 Y85.125 E21.9426
G1 X70.468 Y85.125 E21.9649
G1 X60.218 Y74.875 E22.5375
G1 X60.784 Y74.875 E22.5598
G1 X71.034 Y85.125 E23.1323
G1 X71.600 Y85.125 E23.1547
G1 X61.350 Y74.875 E23.7272
G1 X61.915 Y74.875 E23.7495
G1 X72.165 Y85.125 E24.3221
G1 X72.731 Y85.125 E24.3444
G1 X62.481 Y74.875 E24.9169
G1 X63.047 Y74.875 E24.9393
G1 X73.297 Y85.125 E25.5118
G1 X73.862 Y85.125 E25.5342
G1 X63.612 Y74.875 E26.1067
G1 X64.178 Y74.875 E26.1290
G1 X74.428 Y85.125 E26.7016
G1 X74.994 Y85.125 E26.7239
G1 X64.744 Y74.875 E27.2964
G1 X65.309 Y74.875 E27.3188
G1 X75.559 Y85.125 E27.8913
G1 X76.125 Y85.125 E27.9136
G1 X65.875 Y74.875 E28.4862
G1 X66.441 Y74.875 E28.5085
G1 X76.691 Y85.125 E29.0810
G1 X77.256 Y85.125 E29.1034
G1 X67.006 Y74.875 E29.6759
G1 X67.572 Y74.875 E29.6983
G1 X77.822 Y85.125 E30.2708
G1 X78.388 Y85.125 E30.2931
G1 X68.138 Y74.875 E30.8657
G1 X68.703 Y74.875 E30.8880
G1 X78.953 Y85.125 E31.4605
G1 X79.519 Y85.125 E31.4829
G1 X69.269 Y74.875 E32.0554
G1 X69.835 Y74.875 E32.0777
G1 X80.085 Y85.125 E32.6503
G1 X80.650 Y85.125 E32.6726
G1 X70.400 Y74.875 E33.2451
G1 X70.966 Y74.875 E33.2675
G1 X81.216 Y85.125 E33.8400
G1 X81.782 Y85.125 E33.8623
G1 X71.532 Y74.875 E34.4349
G1 X72.098 Y74.875 E34.4572
G1 X82.348 Y85.125 E35.0297
G1 X82.913 Y85.125 E35.0521
G1 X72.663 Y74.875 E35.6246
G1 X73.229 Y74.875 E35.6470
G1 X83.479 Y85.125 E36.2195
G1 X84.045 Y85.125 E36.2418
G1 X73.795 Y74.875 E36.8144
G1 X74.360 Y74.875 E36.8367
G1 X84.610 Y85.125 E37.4092
G1 X85.176 Y85.125 E37.4316
G1 X74.926 Y74.875 E38.0041
G1 X75.492 Y74.875 E38.0264
G1 X85.742 Y85.125 E38.5990
G1 X86.307 Y85.125 E38.6213
G1 X76.057 Y74.875 E39.1938
G1 X76.623 Y74.875 E39.2162
G1 X86.873 Y85.125 E39.7887
G1 X87.439 Y85.125 E39.8111
G1 X77.189 Y74.875 E40.3836
G1 X77.754 Y74.875 E40.4059
G1 X88.004 Y85.125 E40.9785
G1 X88.570 Y85.125 E41.0008
G1 X78.320 Y74.875 E41.5733
G1 X78.886 Y74.875 E41.5957
G1 X89.136 Y85.125 E42.1682
G1 X89.701 Y85.125 E42.1905
G1 X79.451 Y74.875 E42.7631
G1 X80.017 Y74.875 E42.7854
G1 X90.267 Y85.125 E43.3579
G1 X90.833 Y85.125 E43.3803
G1 X80.583 Y74.875 E43.9528
G1 X81.149 Y74.875 E43.9752
G1 X91.399 Y85.125 E44.5477
G1 X91.964 Y85.125 E44.5700
G1 X81.714 Y74.875 E45.1426
G1 X82.280 Y74.875 E45.1649
G1 X92.530 Y85.125 E45.7374
G1 X93.096 Y85.125 E45.7598
G1 X82.846 Y74.875 E46.3323
G1 X83.411 Y74.875 E46.3546
G1 X93.661 Y85.125 E46.9272
G1 X94.227 Y85.125 E46.9495
G1 X83.977 Y74.875 E47.5220
G1 X84.543 Y74.875 E47.5444
G1 X94.793 Y85.125 E48.1169
G1 X95.358 Y85.125 E48.1392
G1 X85.108 Y74.875 E48.7118
G1 X85.674 Y74.875 E48.7341
G1 X95.924 Y85.125 E49.3066
G1 X96.490 Y85.125 E49.3290
G1 X86.240 Y74.875 E49.9015
G1 X86.805 Y74.875 E49.9239
G1 X97.055 Y85.125 E50.4964
G1 X97.621 Y85.125 E50.5187
G1 X87.371 Y74.875 E51.0913
G1 X87.937 Y74.875 E51.1136
G1 X97.625 Y84.563 E51.6548
G1 X97.625 Y83.998 E51.6771
G1 X88.502 Y74.875 E52.1866
G1 X89.068 Y74.875 E52.2090
G1 X97.625 Y83.432 E52.6869
G1 X97.625 Y82.866 E52.7093
G1 X89.634 Y74.875 E53.1557
G1 X90.199 Y74.875 E53.1780
G1 X97.625 Y82.301 E53.5928
G1 X97.625 Y81.735 E53.6151
G1 X90.765 Y74.875 E53.9983
G1 X91.331 Y74.875 E54.0206
G1 X97.625 Y81.169 E54.3722
G1 X97.625 Y80.603 E54.3945
G1 X91.897 Y74.875 E54.7145
G1 X92.462 Y74.875 E54.7368
G1 X97.625 Y80.038 E55.0252
G1 X97.625 Y79.472 E55.0475
G1 X93.028 Y74.875 E55.3043
G1 X93.594 Y74.875 E55.3267
G1 X97.625 Y78.906 E55.5518
G1 X97.625 Y78.341 E55.5742
G1 X94.159 Y74.875 E55.7678
G1 X94.725 Y74.875 E55.7901
G1 X97.625 Y77.775 E55.9521
G1 X97.625 Y77.209 E55.9744
G1 X95.291 Y74.875 E56.1048
G1 X95.856 Y74.875 E56.1272
G1 X97.625 Y76.644 E56.2260
G1 X97.625 Y76.078 E56.2483
G1 X96.422 Y74.875 E56.3155
G1 X96.988 Y74.875 E56.3378
G1 X97.625 Y75.512 E56.3734
G1 X97.625 Y75.095 E56.3899
G1 X97.625 Y74.947 F672
G1 X97.553 Y74.875 F672
G92 E0
G1 E-1.0000 F1800
G1 Z1.100 F600
; layer 2, Z = 0.500
M106 S255
G4 P500
M106 S178
; tool H0.250 W0.500
; inner perimeter
G1 X97.625 Y74.875 F4200
G1 Z1.000 F600
G1 E0.0000 F1800
G92 E0
G1 X97.625 Y85.125 E0.5060 F3780
G1 X44.375 Y85.125 E3.1350
G1 X44.375 Y74.875 E3.6411
G1 X97.375 Y74.875 E6.2577
G1 X97.625 Y74.875 F3780
G1 X98.125 Y74.375 F4200
G92 E0
G1 X98.125 Y85.625 E0.5554 F3780
G1 X43.875 Y85.625 E3.2338
G1 X43.875 Y74.375 E3.7892
G1 X97.875 Y74.375 E6.4552
G1 X98.125 Y74.375 F3780
G1 X98.625 Y73.875 F4200
G92 E0
G1 X98.625 Y86.125 E0.6048 F3780
G1 X43.375 Y86.125 E3.3325
G1 X43.375 Y73.875 E3.9373
G1 X98.375 Y73.875 E6.6527
G1 X98.625 Y73.875 F3780
; outer perimeter
G1 X99.125 Y86.625 F4200
G92 E0
G1 X42.875 Y86.625 E2.7771 F3360
; bridge
M106 S255
G1 X42.875 Y73.375 E5.5542 F1680
G1 X99.125 Y73.375 E6.2083
; outer perimeter
M106 S178
G1 X99.125 Y86.375 E6.8502 F3360
G1 X99.125 Y86.625 F3360
G1 X97.625 Y86.625 F4200
; solid layer
G1 X97.500 Y84.613 F4200
G92 E0
G1 X97.113 Y85.000 E0.0270 F3360
G1 X96.406 Y85.000 E0.0619
G1 X97.500 Y83.906 E0.1384
G1 X97.500 Y83.199 E0.1733
G1 X95.699 Y85.000 E0.2990
G1 X94.991 Y85.000 E0.3340
G1 X97.500 Y82.491 E0.5091
G1 X97.500 Y81.784 E0.5440
G1 X94.284 Y85.000 E0.7685
G1 X93.577 Y85.000 E0.8035
G1 X97.500 Y81.077 E1.0773
G1 X97.500 Y80.370 E1.1123
G1 X92.870 Y85.000 E1.4355
G1 X92.163 Y85.000 E1.4704
G1 X97.500 Y79.663 E1.8431
G1 X97.500 Y78.956 E1.8780
G1 X91.456 Y85.000 E2.3000
G1 X90.749 Y85.000 E2.3349
G1 X97.500 Y78.249 E2.8063
G1 X97.500 Y77.542 E2.8412
G1 X90.042 Y85.000 E3.3619
G1 X89.335 Y85.000 E3.3968
G1 X97.500 Y76.835 E3.9669
G1 X97.500 Y76.127 E4.0018
G1 X88.627 Y85.000 E4.6213
G1 X87.920 Y85.000 E4.6562
G1 X97.500 Y75.420 E5.3251
G1 X97.500 Y75.000 E5.3459
G1 X97.213 Y75.000 E5.3600
G1 X87.213 Y85.000 E6.0582
G1 X86.506 Y85.000 E6.0931
G1 X96.506 Y75.000 E6.7913
G1 X95.799 Y75.000 E6.8262
G1 X85.799 Y85.000 E7.5244
G1 X85.092 Y85.000 E7.5594
G1 X95.092 Y75.000 E8.2576
G1 X94.385 Y75.000 E8.2925
G1 X84.385 Y85.000 E8.9907
G1 X83.678 Y85.000 E9.0256
G1 X93.678 Y75.000 E9.7238
G1 X92.971 Y75.000 E9.7587
G1 X82.971 Y85.000 E10.4569
G1 X82.263 Y85.000 E10.4918
G1 X92.264 Y75.000 E11.1900
G1 X91.556 Y75.000 E11.2249
G1 X81.556 Y85.000 E11.9231
G1 X80.849 Y85.000 E11.9580
G1 X90.849 Y75.000 E12.6563
G1 X90.142 Y75.000 E12.6912
G1 X80.142 Y85.000 E13.3894
G1 X79.435 Y85.000 E13.4243
G1 X89.435 Y75.000 E14.1225
G1 X88.728 Y75.000 E14.1574
